ddp-workspace/projects/ddp-mpc/src/assets/images/logo-broad-institute.svg

<?xml version="1.0" encoding="UTF-8" standalone="no"?>
<svg xmlns="http://www.w3.org/2000/svg" height="44pt" width="175pt" version="1.1" xmlns:xlink="http://www.w3.org/1999/xlink" viewBox="0 0 175 44">
 <defs>
  <clipPath id="Clip0">
   <path d="m0 0v43.812h174.22v-43.812h-174.22z" transform="translate(0 .18848)"/>
  </clipPath>
 </defs>
 <g id="Background">
  <g id="Group1" clip-path="url(#Clip0)">
   <path fill="#005c9c" d="m0 3.6728c5.996 3.0488 12.392 5.4883 19.089 7.2472v-6.965c-3.727-1.0888-7.359-2.4111-10.88-3.955-2.8077 1.1015-5.5479 2.3271-8.209 3.6728z" transform="translate(20.581 23.526)"/>
   <path fill="#005c9c" d="m0 3.9179c8.2549 5.3086 17.468 9.3921 27.343 11.986v-6.9792c-7.261-2.1192-14.167-5.1289-20.597-8.9248-2.3085 1.2216-4.5624 2.5224-6.746 3.9179z" transform="translate(12.327 28.002)"/>
   <path fill="#005c9c" d="m8.2579 10.96c3.5251-1.541 7.1611-2.8604 10.888-3.9473v-7.0127c-6.715 1.7549-13.129 4.1914-19.146 7.2383 2.6778 1.3623 5.4327 2.6035 8.2579 3.7217z" transform="translate(20.523 10.474)"/>
   <path fill="#005c9c" d="m10.664 9.332c-3.7773-2.8291-7.3368-5.958-10.664-9.332v9.3574c1.667 1.5216 3.3818 2.9946 5.166 4.3976 1.7793-1.543 3.6113-3.02 5.498-4.423z" transform="translate(0 3.6084)"/>
   <path fill="#005c9c" d="m8.0674 4.9892v-4.9892c-2.7422 0.7187-5.4345 1.5478-8.0674 2.4902 2.6329 0.9443 5.3252 1.7774 8.0674 2.499z" transform="translate(31.602 20.001)"/>
   <path fill="#005c9c" d="m12.153 4.2159c-2.148-1.3204-4.2399-2.7256-6.2731-4.2159-2.0147 1.3213-3.9834 2.6993-5.8799 4.1622 1.9062 1.4824 3.877 2.8916 5.9063 4.2265 2.0254-1.4756 4.1097-2.8672 6.2467-4.1728z" transform="translate(5.5361 13.494)"/>
   <path fill="#005c9c" d="m0 8.8682v2.5958h32.43c-7.477-2.9005-14.504-6.7628-20.933-11.464-4.081 2.6689-7.9238 5.6367-11.497 8.8682z" transform="translate(0 32.471)"/>
   <path fill="#005c9c" d="m5.2041 0c-1.7949 1.3994-3.5234 2.8682-5.2041 4.3877v9.4123c3.3535-3.376 6.9356-6.5002 10.738-9.3263-1.8991-1.419-3.7448-2.9141-5.5339-4.4737z" transform="translate(0 27.44)"/>
   <path fill="#005c9c" d="m5.8848 0c-2.0166 1.3223-3.9873 2.6973-5.8848 4.1612 1.9082 1.4824 3.8809 2.8896 5.9101 4.2256 2.0284-1.4746 4.1139-2.8672 6.2519-4.1729-2.148-1.3193-4.2411-2.7236-6.2772-4.2139z" transform="translate(5.5713 22.981)"/>
   <path fill="#005c9c" d="m6.7705 7.8877c2.4092-1.4189 4.8855-2.7324 7.4225-3.9257-2.549-1.2051-5.0348-2.5313-7.4557-3.962-2.3056 1.2208-4.5586 2.5235-6.7373 3.918 2.1905 1.4112 4.4493 2.7354 6.7705 3.9697z" transform="translate(12.286 18.515)"/>
   <path fill="#005c9c" d="m5.2002 8.8965c1.7793-1.5429 3.6142-3.0195 5.5008-4.4218-1.8983-1.419-3.742-2.9131-5.5301-4.4747-1.7822 1.3907-3.5039 2.8506-5.1709 4.3614v0.1289c1.6748 1.5273 3.4072 2.999 5.2002 4.4062z" transform="translate(0 17.952)"/>
   <path fill="#005c9c" d="m0 0v9.1328c1.5615-1.5703 3.1719-3.0869 4.834-4.542-1.6641-1.4688-3.2715-3.0069-4.834-4.5908z" transform="translate(0 13.064)"/>
   <path fill="#005c9c" d="m0 0v9.1894c1.5752-1.582 3.1914-3.1191 4.8662-4.5859-1.6748-1.4756-3.2959-3.0098-4.8662-4.6035z" transform="translate(0 22.538)"/>
   <path fill="#005c9c" d="m0 4.1612c1.9082 1.4824 3.8809 2.8896 5.9101 4.2256 2.0284-1.4746 4.1139-2.8672 6.2519-4.1729-2.148-1.3193-4.2411-2.7236-6.2772-4.2139-2.0166 1.3223-3.9873 2.6973-5.8848 4.1612z" transform="translate(5.5713 22.981)"/>
   <path fill="#005c9c" d="m12.153 4.2159c-2.148-1.3204-4.2399-2.7256-6.2731-4.2159-2.0147 1.3213-3.9834 2.6993-5.8799 4.1622 1.9062 1.4824 3.877 2.8916 5.9063 4.2265 2.0254-1.4756 4.1097-2.8672 6.2467-4.1728z" transform="translate(5.5361 13.494)"/>
   <path fill="#005c9c" d="m6.7705 7.8877c2.4092-1.4189 4.8855-2.7324 7.4225-3.9257-2.549-1.2051-5.0348-2.5313-7.4557-3.962-2.3056 1.2208-4.5586 2.5235-6.7373 3.918 2.1905 1.4112 4.4493 2.7354 6.7705 3.9697z" transform="translate(12.286 18.515)"/>
   <path fill="#005c9c" d="m27.396 0c-9.889 2.5928-19.119 6.6709-27.396 11.974 2.1894 1.411 4.4453 2.736 6.7627 3.97 6.4513-3.798 13.381-6.8102 20.665-8.9323v-7.0117h-0.032z" transform="translate(12.242 .97168)"/>
   <path fill="#005c9c" d="m32.286 0h-32.286v2.5361c3.544 3.2344 7.3486 6.2159 11.401 8.8899 6.418-4.6819 13.431-8.5315 20.885-11.426z" transform="translate(0 .97168)"/>
   <path fill="#161413" d="m4.0088 9.4463h-4.0088v-0.5996h1.0879v-8.2471h-1.0879v-0.5996h4.0088v0.5996h-1.0732v8.2471h1.0732v0.5996" transform="translate(49.278 34.367)"/>
   <path fill="#161413" d="m8.3887 9.6045h-1.002l-4.9824-7.0147v6.2569h1.1308v0.5996h-3.2343v-0.5996h1.1875v-7.5157l-0.458-0.7314h-1.0303v-0.5996h2.8486l4.6387 6.5986v-5.999h-1.1319v-0.5996h3.2364v0.5996h-1.2031v9.0049" transform="translate(60.518 34.367)"/>
   <path fill="#161413" d="m0.873 9.8643h-0.7871v-2.5762h0.7871v1.0596c0.6446 0.5146 1.1299 0.7011 1.833 0.7011 0.8868 0 1.5323-0.5302 1.5323-1.2744 0-0.6445-0.416-1.1025-1.7481-1.9619-1.4033-0.8877-1.5752-1.0312-1.9453-1.4609-0.3594-0.4161-0.5449-0.9873-0.5449-1.6172 0-1.5733 1.1601-2.6192 2.9062-2.6192 0.5577 0 1.001 0.085 1.5459 0.3145v-0.4297h0.7745v2.4482h-0.7745v-0.9873c-0.6015-0.3867-0.9882-0.5312-1.5175-0.5312-0.7442 0-1.3164 0.5312-1.3164 1.2041 0 0.5713 0.3291 0.9307 1.7041 1.8017 0.6572 0.4297 1.0722 0.6895 1.2304 0.8047 0.3291 0.2276 0.6299 0.543 0.8731 0.9307 0.2715 0.4414 0.4004 0.916 0.4004 1.4736 0 1.6328-1.1885 2.7764-2.8633 2.7764-0.8301 0-1.4317-0.1729-2.0899-0.5576v0.501" transform="translate(77.854 34.079)"/>
   <path fill="#161413" d="m6.4844 9.8477h-4.6094v-0.5996h1.3887v-8.002h-2.4766v1.1875h-0.7871v-2.4336h0.7871v0.4014h6.7851v-0.4014h0.7872v2.4336h-0.7872v-1.1875h-2.4628v8.002h1.375v0.5996" transform="translate(90.955 33.966)"/>
   <path fill="#161413" d="m4.007 9.4463h-4.007v-0.5996h1.088v-8.2471h-1.088v-0.5996h4.007v0.5996h-1.074v8.2471h1.074v0.5996" transform="translate(105.49 34.367)"/>
   <path fill="#161413" d="m6.486 9.8477h-4.609v-0.5996h1.388v-8.002h-2.476v1.1875h-0.789v-2.4336h0.789v0.4014h6.785v-0.4014h0.789v2.4336h-0.789v-1.1875h-2.463v8.002h1.375v0.5996" transform="translate(115.41 33.966)"/>
   <path fill="#161413" d="m9.965 0.5996h-1.204v5.3828c0 1.6192-0.558 2.6348-1.775 3.2061-0.629 0.2861-1.33 0.4443-2.076 0.4443-2.318 0-3.822-1.2754-3.822-3.249v-5.7842h-1.088v-0.5996h4.008v0.5996h-1.075v5.3398c0 1.4473 0.26 2.1045 0.991 2.4913 0.341 0.1699 0.757 0.2714 1.187 0.2714 1.717 0 2.719-1.0156 2.719-2.7627v-5.3261h-1.188v-0.6133h3.323v0.5996" transform="translate(130.7 34.367)"/>
   <path fill="#161413" d="m6.484 9.8477h-4.609v-0.5996h1.388v-8.002h-2.476v1.1875h-0.787v-2.4336h0.787v0.4014h6.787v-0.4014h0.787v2.4336h-0.787v-1.1875h-2.465v8.002h1.375v0.5996" transform="translate(147.36 33.966)"/>
   <path fill="#161413" d="m6.814 9.8477h-6.814v-0.5996h1.088v-8.2471h-1.088v-0.5996h5.896v-0.4014h0.774v2.2754h-0.758v-1.0293h-2.979v3.377h2.291v-0.9737l0.774-0.0136v2.8193l-0.774 0.0156v-1.0029h-2.291v3.5342h3.108v-1.0576h0.773v1.9033" transform="translate(162.65 33.966)"/>
   <path fill="#161413" d="m6.4786 24.444h4.4514c3.339 0 5.366-1.987 5.366-5.246 0-3.299-2.266-5.684-5.366-5.684h-4.4514v10.93zm0-12.718h4.0534c2.583 0 4.413-2.1069 4.413-5.0483 0-2.7822-1.71-4.8486-4.054-4.8486h-4.4124v9.8969zm-6.4786 14.506v-1.47h2.9815v-23.291l-2.9815-0.0003v-1.4707h12.083c3.616 0 6.559 2.9023 6.559 6.5195 0 2.9805-2.624 5.6035-5.843 5.8815 1.629 0.199 2.225 0.359 3.219 0.835 2.464 1.153 3.895 3.457 3.895 6.16 0 3.897-3.02 6.836-7.074 6.836h-12.839z" transform="translate(47.648 1.0225)"/>
   <path fill="#161413" d="m6.4795 12.641h3.8155c3.019 0 5.127-2.227 5.127-5.4867 0-3.418-1.868-5.3252-5.206-5.3252h-3.7365v10.812zm16.496 13.591h-3.38c-2.344 0-2.781-0.237-4.094-2.344l-5.9219-9.42h-3.0996v10.294h2.9805v1.47h-9.46v-1.47h2.9815v-23.291l-2.9815-0.0003v-1.4707h11.05c3.854 0 6.041 1.0732 7.236 3.5381 0.514 1.0732 0.792 2.2656 0.792 3.5371 0 3.8558-2.146 6.3208-5.962 6.8758l5.725 8.824c0.954 1.471 1.588 1.948 2.584 1.948h1.55v1.509z" transform="translate(71.615 1.0225)"/>
   <path fill="#161413" d="m3.9366 13.594c0 6.716 3.7353 11.567 8.9024 11.567 5.087 0 8.785-4.889 8.785-11.567s-3.698-11.527-8.744-11.527c-5.2081 0.0004-8.9434 4.7689-8.9434 11.527zm-3.9366 0.039c0-7.4728 5.8029-13.633 12.839-13.633 6.916 0 12.72 6.2002 12.72 13.594 0 7.392-5.804 13.632-12.72 13.632-6.9971 0-12.839-6.2-12.839-13.593z" transform="translate(95.661 .54590)"/>
   <path fill="#161413" d="m16.694 16.534l-4.252-11.168-4.492 11.168h8.744zm9.34 10.532h-9.061v-1.47h3.178l-2.781-7.154-10.174-0.04-2.905 7.155h3.299v1.509h-7.59v-1.509h2.067l10.334-25.557h1.43l9.937 25.557h2.266v1.509z" transform="translate(120.96 .18848)"/>
   <path fill="#161413" d="m6.478 24.246h4.77c5.445 0 9.578-4.81 9.539-11.129 0-6.1209-4.211-11.09-9.459-11.09l-4.85 0.0003v22.219zm-6.478 1.986v-1.47h2.98v-23.291l-2.98-0.0003v-1.4707h11.726c7.154 0 12.996 5.8828 12.996 13.076 0 7.354-5.724 13.156-13.037 13.156h-11.685z" transform="translate(149.5 1.0225)"/>
  </g>
 </g>
</svg>

<?xml version="1.0" encoding="UTF-8"?>
<svg width="175pt" version="1.1" xmlns="http://www.w3.org/2000/svg" height="44pt" viewBox="0 0 175 44" xmlns:xlink="http://www.w3.org/1999/xlink">
 <defs>
  <clipPath id="Clip0">
   <path d="M0 0 L0 43.8115 L174.22 43.8115 L174.22 0 L0 0 Z" transform="translate(0, 0.188477)"/>
  </clipPath>
 </defs>
 <g id="Background">
  <g id="Group1" clip-path="url(#Clip0)">
   <path style="fill:#005c9c; fill-rule:nonzero;stroke:none;" d="M0 3.6728 C5.996 6.7216 12.3925 9.1611 19.0888 10.9199 L19.0888 3.955 C15.3623 2.8662 11.7304 1.5439 8.2089 0 C5.4013 1.1015 2.6611 2.3271 0 3.6728 Z" transform="translate(20.5811, 23.5264)"/>
   <path style="fill:#005c9c; fill-rule:nonzero;stroke:none;" d="M0 3.9179 C8.2549 9.2265 17.4678 13.3095 27.3428 15.9043 L27.3428 8.9248 C20.0821 6.8056 13.1758 3.7959 6.7461 0 C4.4375 1.2216 2.1836 2.5224 0 3.9179 Z" transform="translate(12.3271, 28.002)"/>
   <path style="fill:#005c9c; fill-rule:nonzero;stroke:none;" d="M8.2579 10.96 C11.7832 9.419 15.419 8.0996 19.1465 7.0127 L19.1465 0 C12.4307 1.7549 6.0166 4.1914 0 7.2383 C2.6778 8.6006 5.4327 9.8418 8.2579 10.96 Z" transform="translate(20.5234, 10.4736)"/>
   <path style="fill:#005c9c; fill-rule:nonzero;stroke:none;" d="M10.6641 9.332 C6.88672 6.5029 3.32715 3.37402 0 0 L0 9.3574 C1.66699 10.8789 3.38184 12.3525 5.16602 13.7549 C6.94531 12.2119 8.77734 10.7354 10.6641 9.332 Z" transform="translate(0, 3.6084)"/>
   <path style="fill:#005c9c; fill-rule:nonzero;stroke:none;" d="M8.0674 4.9892 L8.0674 0 C5.3252 0.7187 2.6329 1.5478 0 2.4902 C2.6329 3.4345 5.3252 4.2676 8.0674 4.9892 Z" transform="translate(31.6025, 20.001)"/>
   <path style="fill:#005c9c; fill-rule:nonzero;stroke:none;" d="M12.1534 4.2159 C10.0049 2.8955 7.91307 1.4903 5.87987 0 C3.86524 1.3213 1.89649 2.6993 0 4.1622 C1.90625 5.6446 3.87696 7.0538 5.90627 8.3887 C7.93167 6.9131 10.0157 5.5215 12.1534 4.2159 Z" transform="translate(5.53613, 13.4941)"/>
   <path style="fill:#005c9c; fill-rule:nonzero;stroke:none;" d="M0 8.8682 L0 11.4639 L32.4297 11.4639 C24.9531 8.5635 17.9258 4.7012 11.4971 0 C7.41602 2.6689 3.57324 5.6367 0 8.8682 Z" transform="translate(0, 32.4707)"/>
   <path style="fill:#005c9c; fill-rule:nonzero;stroke:none;" d="M5.2041 0 C3.40918 1.3994 1.68066 2.8682 0 4.3877 L0 13.7998 C3.35352 10.4239 6.93555 7.2998 10.7383 4.4737 C8.83887 3.0547 6.99316 1.5596 5.2041 0 Z" transform="translate(0, 27.4404)"/>
   <path style="fill:#005c9c; fill-rule:nonzero;stroke:none;" d="M5.88481 0 C3.86816 1.3223 1.89746 2.6973 0 4.1612 C1.9082 5.6436 3.88086 7.0508 5.91011 8.3868 C7.93851 6.9122 10.0244 5.5196 12.1621 4.2139 C10.0137 2.8946 7.92091 1.4903 5.88481 0 Z" transform="translate(5.57129, 22.9814)"/>
   <path style="fill:#005c9c; fill-rule:nonzero;stroke:none;" d="M6.7705 7.8877 C9.1797 6.4688 11.6563 5.1553 14.1934 3.962 C11.6436 2.7569 9.1582 1.4307 6.7373 0 C4.4317 1.2208 2.1787 2.5235 0 3.918 C2.1905 5.3292 4.4493 6.6534 6.7705 7.8877 Z" transform="translate(12.2861, 18.5146)"/>
   <path style="fill:#005c9c; fill-rule:nonzero;stroke:none;" d="M5.2002 8.8965 C6.97949 7.3536 8.81445 5.877 10.7012 4.4747 C8.80273 3.0557 6.95898 1.5616 5.1709 0 C3.38867 1.3907 1.66699 2.8506 0 4.3614 L0 4.4903 C1.6748 6.0176 3.40723 7.4893 5.2002 8.8965 Z" transform="translate(0, 17.9521)"/>
   <path style="fill:#005c9c; fill-rule:nonzero;stroke:none;" d="M0 0 L0 9.1328 C1.56152 7.5625 3.17188 6.0459 4.83398 4.5908 C3.16992 3.122 1.5625 1.5839 0 0 Z" transform="translate(0, 13.0645)"/>
   <path style="fill:#005c9c; fill-rule:nonzero;stroke:none;" d="M0 0 L0 9.1894 C1.5752 7.6074 3.19141 6.0703 4.86621 4.6035 C3.19141 3.1279 1.57031 1.5937 0 0 Z" transform="translate(0, 22.5381)"/>
   <path style="fill:#005c9c; fill-rule:nonzero;stroke:none;" d="M0 4.1612 C1.9082 5.6436 3.88086 7.0508 5.91011 8.3868 C7.93851 6.9122 10.0244 5.5196 12.1621 4.2139 C10.0137 2.8946 7.92091 1.4903 5.88481 0 C3.86816 1.3223 1.89746 2.6973 0 4.1612 Z" transform="translate(5.57129, 22.9814)"/>
   <path style="fill:#005c9c; fill-rule:nonzero;stroke:none;" d="M12.1534 4.2159 C10.0049 2.8955 7.91307 1.4903 5.87987 0 C3.86524 1.3213 1.89649 2.6993 0 4.1622 C1.90625 5.6446 3.87696 7.0538 5.90627 8.3887 C7.93167 6.9131 10.0157 5.5215 12.1534 4.2159 Z" transform="translate(5.53613, 13.4941)"/>
   <path style="fill:#005c9c; fill-rule:nonzero;stroke:none;" d="M6.7705 7.8877 C9.1797 6.4688 11.6563 5.1553 14.1934 3.962 C11.6436 2.7569 9.1582 1.4307 6.7373 0 C4.4317 1.2208 2.1787 2.5235 0 3.918 C2.1905 5.3292 4.4493 6.6534 6.7705 7.8877 Z" transform="translate(12.2861, 18.5146)"/>
   <path style="fill:#005c9c; fill-rule:nonzero;stroke:none;" d="M27.3955 0 C17.5068 2.59277 8.2773 6.6709 0 11.9736 C2.1894 13.3847 4.4453 14.7099 6.7627 15.9443 C13.2139 12.1465 20.1435 9.13382 27.4277 7.01172 L27.4277 0 L27.3955 0 Z" transform="translate(12.2422, 0.97168)"/>
   <path style="fill:#005c9c; fill-rule:nonzero;stroke:none;" d="M32.2861 0 L0 0 L0 2.53613 C3.54395 5.77051 7.34863 8.75195 11.4014 11.4258 C17.8193 6.74414 24.832 2.89453 32.2861 0 Z" transform="translate(0, 0.97168)"/>
   <path style="fill:#161413; fill-rule:nonzero;stroke:none;" d="M4.0088 9.4463 L0 9.4463 L0 8.8467 L1.0879 8.8467 L1.0879 0.5996 L0 0.5996 L0 0 L4.0088 0 L4.0088 0.5996 L2.9356 0.5996 L2.9356 8.8467 L4.0088 8.8467 L4.0088 9.4463 " transform="translate(49.2783, 34.3672)"/>
   <path style="fill:#161413; fill-rule:nonzero;stroke:none;" d="M8.3887 9.6045 L7.3867 9.6045 L2.4043 2.5898 L2.4043 8.8467 L3.5351 8.8467 L3.5351 9.4463 L0.3008 9.4463 L0.3008 8.8467 L1.4883 8.8467 L1.4883 1.331 L1.0303 0.5996 L0 0.5996 L0 0 L2.8486 0 L7.4873 6.5986 L7.4873 0.5996 L6.3554 0.5996 L6.3554 0 L9.5918 0 L9.5918 0.5996 L8.3887 0.5996 L8.3887 9.6045 " transform="translate(60.5176, 34.3672)"/>
   <path style="fill:#161413; fill-rule:nonzero;stroke:none;" d="M0.873 9.8643 L0.0859 9.8643 L0.0859 7.2881 L0.873 7.2881 L0.873 8.3477 C1.5176 8.8623 2.0029 9.0488 2.706 9.0488 C3.5928 9.0488 4.2383 8.5186 4.2383 7.7744 C4.2383 7.1299 3.8223 6.6719 2.4902 5.8125 C1.0869 4.9248 0.915 4.7813 0.5449 4.3516 C0.1855 3.9355 0 3.3643 0 2.7344 C0 1.1611 1.1601 0.1152 2.9062 0.1152 C3.4639 0.1152 3.9072 0.2002 4.4521 0.4297 L4.4521 0 L5.2266 0 L5.2266 2.4482 L4.4521 2.4482 L4.4521 1.4609 C3.8506 1.0742 3.4639 0.9297 2.9346 0.9297 C2.1904 0.9297 1.6182 1.4609 1.6182 2.1338 C1.6182 2.7051 1.9473 3.0645 3.3223 3.9355 C3.9795 4.3652 4.3945 4.625 4.5527 4.7402 C4.8818 4.9678 5.1826 5.2832 5.4258 5.6709 C5.6973 6.1123 5.8262 6.5869 5.8262 7.1445 C5.8262 8.7773 4.6377 9.9209 2.9629 9.9209 C2.1328 9.9209 1.5312 9.748 0.873 9.3633 L0.873 9.8643 " transform="translate(77.8545, 34.0791)"/>
   <path style="fill:#161413; fill-rule:nonzero;stroke:none;" d="M6.4844 9.8477 L1.875 9.8477 L1.875 9.2481 L3.2637 9.2481 L3.2637 1.2461 L0.7871 1.2461 L0.7871 2.4336 L0 2.4336 L0 0 L0.7871 0 L0.7871 0.4014 L7.5722 0.4014 L7.5722 0 L8.3594 0 L8.3594 2.4336 L7.5722 2.4336 L7.5722 1.2461 L5.1094 1.2461 L5.1094 9.2481 L6.4844 9.2481 L6.4844 9.8477 " transform="translate(90.9551, 33.9658)"/>
   <path style="fill:#161413; fill-rule:nonzero;stroke:none;" d="M4.007 9.4463 L0 9.4463 L0 8.8467 L1.088 8.8467 L1.088 0.5996 L0 0.5996 L0 0 L4.007 0 L4.007 0.5996 L2.933 0.5996 L2.933 8.8467 L4.007 8.8467 L4.007 9.4463 " transform="translate(105.494, 34.3672)"/>
   <path style="fill:#161413; fill-rule:nonzero;stroke:none;" d="M6.486 9.8477 L1.877 9.8477 L1.877 9.2481 L3.265 9.2481 L3.265 1.2461 L0.789 1.2461 L0.789 2.4336 L0 2.4336 L0 0 L0.789 0 L0.789 0.4014 L7.574 0.4014 L7.574 0 L8.363 0 L8.363 2.4336 L7.574 2.4336 L7.574 1.2461 L5.111 1.2461 L5.111 9.2481 L6.486 9.2481 L6.486 9.8477 " transform="translate(115.408, 33.9658)"/>
   <path style="fill:#161413; fill-rule:nonzero;stroke:none;" d="M9.965 0.5996 L8.761 0.5996 L8.761 5.9824 C8.761 7.6016 8.203 8.6172 6.986 9.1885 C6.357 9.4746 5.656 9.6328 4.91 9.6328 C2.592 9.6328 1.088 8.3574 1.088 6.3838 L1.088 0.5996 L0 0.5996 L0 0 L4.008 0 L4.008 0.5996 L2.933 0.5996 L2.933 5.9394 C2.933 7.3867 3.193 8.0439 3.924 8.4307 C4.265 8.6006 4.681 8.7021 5.111 8.7021 C6.828 8.7021 7.83 7.6865 7.83 5.9394 L7.83 0.6133 L6.642 0.6133 L6.642 0 L9.965 0 L9.965 0.5996 " transform="translate(130.699, 34.3672)"/>
   <path style="fill:#161413; fill-rule:nonzero;stroke:none;" d="M6.484 9.8477 L1.875 9.8477 L1.875 9.2481 L3.263 9.2481 L3.263 1.2461 L0.787 1.2461 L0.787 2.4336 L0 2.4336 L0 0 L0.787 0 L0.787 0.4014 L7.574 0.4014 L7.574 0 L8.361 0 L8.361 2.4336 L7.574 2.4336 L7.574 1.2461 L5.109 1.2461 L5.109 9.2481 L6.484 9.2481 L6.484 9.8477 " transform="translate(147.363, 33.9658)"/>
   <path style="fill:#161413; fill-rule:nonzero;stroke:none;" d="M6.814 9.8477 L0 9.8477 L0 9.2481 L1.088 9.2481 L1.088 1.001 L0 1.001 L0 0.4014 L5.896 0.4014 L5.896 0 L6.67 0 L6.67 2.2754 L5.912 2.2754 L5.912 1.2461 L2.933 1.2461 L2.933 4.6231 L5.224 4.6231 L5.224 3.6494 L5.998 3.6358 L5.998 6.4551 L5.224 6.4707 L5.224 5.4678 L2.933 5.4678 L2.933 9.002 L6.041 9.002 L6.041 7.9444 L6.814 7.9444 L6.814 9.8477 " transform="translate(162.654, 33.9658)"/>
   <path style="fill:#161413; fill-rule:nonzero;stroke:none;" d="M6.4786 24.4443 L10.9297 24.4443 C14.2686 24.4443 16.2959 22.457 16.2959 19.1982 C16.2959 15.8994 14.0303 13.5136 10.9297 13.5136 L6.4786 13.5136 L6.4786 24.4443 Z M6.4786 11.7255 L10.5323 11.7255 C13.1153 11.7255 14.9454 9.61914 14.9454 6.67774 C14.9454 3.89551 13.2354 1.8291 10.8907 1.8291 L6.4786 1.8291 L6.4786 11.7255 Z M0 26.2324 L0 24.7617 L2.9815 24.7617 L2.9815 1.4707 L0 1.4707 L0 0 L12.083 0 C15.6993 0 18.6416 2.90234 18.6416 6.51953 C18.6416 9.50004 16.0176 12.123 12.7989 12.4013 C14.4278 12.6005 15.0245 12.7597 16.0176 13.2363 C18.4825 14.3886 19.9131 16.6933 19.9131 19.3964 C19.9131 23.2929 16.8926 26.2324 12.8389 26.2324 L0 26.2324 Z" transform="translate(47.6484, 1.02246)"/>
   <path style="fill:#161413; fill-rule:nonzero;stroke:none;" d="M6.4795 12.6406 L10.295 12.6406 C13.3145 12.6406 15.4219 10.414 15.4219 7.1543 C15.4219 3.73633 13.5537 1.8291 10.2159 1.8291 L6.4795 1.8291 L6.4795 12.6406 Z M22.9746 26.2324 L19.5948 26.2324 C17.251 26.2324 16.8135 25.9951 15.501 23.8877 L9.5791 14.4677 L6.4795 14.4677 L6.4795 24.7617 L9.46 24.7617 L9.46 26.2324 L0 26.2324 L0 24.7617 L2.9815 24.7617 L2.9815 1.4707 L0 1.4707 L0 0 L11.0498 0 C14.9043 0 17.0909 1.07324 18.2862 3.53809 C18.7998 4.61133 19.0782 5.80371 19.0782 7.0752 C19.0782 10.9306 16.9317 13.3955 13.1162 13.9511 L18.8409 22.7754 C19.795 24.2461 20.4287 24.7226 21.4248 24.7226 L22.9746 24.7226 L22.9746 26.2324 Z" transform="translate(71.6152, 1.02246)"/>
   <path style="fill:#161413; fill-rule:nonzero;stroke:none;" d="M3.9366 13.5937 C3.9366 20.3105 7.6719 25.1611 12.8389 25.1611 C17.9259 25.1611 21.6239 20.2715 21.6239 13.5937 C21.6239 6.91601 17.9259 2.06738 12.8799 2.06738 C7.6719 2.06738 3.9366 6.83594 3.9366 13.5937 Z M0 13.6328 C0 6.16015 5.8029 0 12.8389 0 C19.7549 0 25.5589 6.20019 25.5589 13.5937 C25.5589 20.9863 19.7549 27.2256 12.8389 27.2256 C5.8419 27.2256 0 21.0264 0 13.6328 Z" transform="translate(95.6611, 0.545898)"/>
   <path style="fill:#161413; fill-rule:nonzero;stroke:none;" d="M16.694 16.5342 L12.442 5.36621 L7.95 16.5342 L16.694 16.5342 Z M26.034 27.0664 L16.973 27.0664 L16.973 25.5957 L20.151 25.5957 L17.37 18.4424 L7.196 18.4023 L4.291 25.5566 L7.59 25.5566 L7.59 27.0664 L0 27.0664 L0 25.5566 L2.067 25.5566 L12.401 0 L13.831 0 L23.768 25.5566 L26.034 25.5566 L26.034 27.0664 Z" transform="translate(120.96, 0.188477)"/>
   <path style="fill:#161413; fill-rule:nonzero;stroke:none;" d="M6.478 24.2461 L11.248 24.2461 C16.693 24.2461 20.826 19.4365 20.787 13.1171 C20.787 6.99609 16.576 2.02734 11.328 2.02734 L6.478 2.02734 L6.478 24.2461 Z M0 26.2324 L0 24.7617 L2.98 24.7617 L2.98 1.4707 L0 1.4707 L0 0 L11.726 0 C18.88 0 24.722 5.88281 24.722 13.0761 C24.722 20.4296 18.998 26.2324 11.685 26.2324 L0 26.2324 Z" transform="translate(149.498, 1.02246)"/>
  </g>
 </g>
</svg>
